src/images/icon-js.svg

<svg width="120" height="120" viewBox="0 0 120 120" fill="none" xmlns="http://www.w3.org/2000/svg">
<path d="M14 14H106V106H14V14Z" fill="#D1D2D6"/>
<path d="M38.1911 90.8823L45.2315 86.6215C46.5898 89.0298 47.8254 91.0673 50.7891 91.0673C53.63 91.0673 55.4211 89.956 55.4211 85.6335V56.2373H64.0667V85.7557C64.0667 94.7104 58.8178 98.7863 51.1597 98.7863C44.2435 98.7863 40.2288 95.2043 38.1909 90.8816" fill="#F5F6F7"/>
<path d="M68.7603 89.9546L75.7999 85.8787C77.653 88.9051 80.0615 91.1281 84.3224 91.1281C87.9047 91.1281 90.1891 89.337 90.1891 86.8668C90.1891 83.9025 87.8425 82.8525 83.89 81.1239L81.7292 80.1969C75.4914 77.5419 71.3536 74.2071 71.3536 67.1668C71.3536 60.6824 76.294 55.7417 84.0139 55.7417C89.5102 55.7417 93.4625 57.6563 96.303 62.6586L89.5715 66.9813C88.0893 64.326 86.4841 63.2764 84.014 63.2764C81.482 63.2764 79.8762 64.882 79.8762 66.9813C79.8762 69.5751 81.482 70.6253 85.1869 72.231L87.3482 73.1573C94.6972 76.3071 98.8351 79.518 98.8351 86.7432C98.8351 94.525 92.7213 98.7857 84.5079 98.7857C76.4796 98.7857 71.292 94.9571 68.7604 89.9546" fill="#F5F6F7"/>
</svg>

<svg xmlns="http://www.w3.org/2000/svg" fill="none" viewBox="0 0 120 120"><path fill="#D1D2D6" d="M14 14h92v92H14V14z"/><path fill="#F5F6F7" d="M38.2 90.9l7-4.3c1.4 2.4 2.6 4.5 5.6 4.5 2.8 0 4.6-1.1 4.6-5.5V56.2h8.7v29.6c0 9-5.3 13-13 13-6.9 0-10.9-3.6-13-8M68.8 90l7-4.1c1.9 3 4.3 5.2 8.5 5.2 3.6 0 5.9-1.8 5.9-4.2 0-3-2.4-4-6.3-5.8l-2.2-.9c-6.2-2.7-10.3-6-10.3-13 0-6.5 4.9-11.5 12.6-11.5 5.5 0 9.5 2 12.3 7L89.6 67c-1.5-2.7-3.1-3.7-5.6-3.7-2.5 0-4.1 1.6-4.1 3.7 0 2.6 1.6 3.6 5.3 5.2l2.1 1c7.4 3.1 11.5 6.3 11.5 13.5 0 7.8-6 12-14.3 12-8 0-13.2-3.7-15.7-8.7"/></svg>
